X:18
T:Tordion
R:Tourdion
C:Jacques Moderne
H:XVI eme siecle
O:France
Z:S. Piron
P:AAB
M:4/4
L:1/4
Q:1/4=200
K:C
z A/2G/2 F/2G/2A/2B/2|c>B A/2G/2F/2G/2|A/2B/2c/2A/2 B2|
z A/2G/2 F/2G/2A/2B/2|c>B AG|-G^FG2:|
|:E2F2|G2E2|F2G2:||
